!!!!SEGMENT: pl-sa--308-a-vii-68--002_riccieri-giovanni-antonio--concerti-tres-de-deo-o-esca-viatorum.krn
!!!cenid: 17xx:610
!!!COM: Riccieri, Giovanni Antonio
!!!COM-rismid: pe30007685
!!!CDT: 1679-1746
!!!CNT: Italian
!!!GTL: Concerti Tres de Deo
!!!OTL: O esca viatorum
!!!PDT:
!!!AGN:
!!!SMS-siglum: PL-SA
!!!SMS-shelfmark: 308/A VII 68
!!!SMS-shelfwork: 002 G
!!!SMS-variant:
!!!SMS-altvar:
!!!NIFC-rismid: 1001041297
!!!URL-scan: http://bc.bdsandomierz.pl/dlibra/publication/1613/edition/1581/content
!!!ONB-nifc:
!!!key:
**kern	**fb	**kern	**kern	**kern	**text
*part4	*	*part3	*part2	*part1	*part1
*group	*	*group1	*group1	*group	*group
*staff4	*	*staff3	*staff2	*staff1	*staff1
*Iorgan	*	*Ivioln	*Ivioln	*Iempty	*
*I"Organo	*	*I"Violino 2do	*I"Violino 1mo	*I"Baſso ſolo.	*
*I'org	*	*I'vl 2	*I'vl 1	*I'B	*
*clefF4	*	*clefG2	*clefG2	*clefF4	*
*k[b-]	*	*k[b-]	*k[b-]	*k[b-]	*
*F:	*	*F:	*F:	*F:	*
*M2/2	*	*M2/2	*M2/2	*M2/2	*
*met(c|)	*	*met(c|)	*met(c|)	*met(C.)	*
=1	=1	=1	=1	=1	=1
*	*above	*	*	*	*
!	!	!	!	!LO:TX:a:t=P:problem=w źródle bemole przykluczowe B- BB-, zapisane jeden nad drugim	!
!LO:TX:b:t=O esca Viatoru(m).	!	!LO:TX:b:t=O esca Viatoru(m).	!LO:TX:b:t=O esca Viatoru(m).	!	!
8F\L	.	4r	4r	00r	.
8G\	.	.	.	.	.
8A\	.	8r	8r	.	.
8F\J	.	8f/	8f/	.	.
4E\	X 6	8cc\L	8cc\L	.	.
.	.	8cc\J	8cc\J	.	.
8r	.	16cc\LL	16cc\LL	.	.
.	.	16b-\	16b-\	.	.
8C/	.	16a\	16a\	.	.
.	.	16g\JJ	16g\JJ	.	.
=2	=2	=2	=2	=2	=2
*	*	*Xtuplet	*Xtuplet	*	*
8.D/L	.	24f/LL	24f/LL	.	.
.	.	24e/	24e/	.	.
.	.	24f/JJ	24f/JJ	.	.
.	.	4r	4r	.	.
16AA/K	.	.	.	.	.
8D/	.	.	.	.	.
8AA/J	.	8cc\	8cc\	.	.
8BB-/L	.	8dd\L	8dd\L	.	.
8AA/	.	16cc\L	16cc\L	.	.
.	.	16dd\JJ	16dd\JJ	.	.
8GG/	.	16b-\LL	16b-\LL	.	.
.	.	16a\	16a\	.	.
8C/J	.	16b-\	16b-\	.	.
.	.	16cc\JJ	16cc\JJ	.	.
=3	=3	=3	=3	=3	=3
4FF/	.	8a/L	8a/L	.	.
.	.	8f/J	8f/J	.	.
8r	.	8ff\L	8ff\L	.	.
8F\	.	16gg\L	16gg\L	.	.
.	.	16aa\JJ	16aa\JJ	.	.
8F\L	.	4.gg\	4.gg\	.	.
16E\L	.	.	.	.	.
16D\JJ	.	.	.	.	.
!LO:N:vis=4.	!	!	!	!	!
4E\	.	.	.	.	.
.	.	24cc\LL	24cc\LL	.	.
.	.	24dd\	24dd\	.	.
.	.	24ee\JJ	24ee\JJ	.	.
!	!	!LO:LB:g=original	!	!	!
=4	=4	=4	=4	=4	=4
!LO:N:vis=16	!	!	!	!	!
8D\L	.	4.ff\	4.ff\	.	.
!LO:N:vis=16	!	!	!	!	!
8C\J	.	.	.	.	.
4D\	.	.	.	.	.
.	.	24bn\LL	24bn\LL	.	.
.	.	24cc\	24cc\	.	.
.	.	24dd\JJ	24dd\JJ	.	.
!LO:TX:a:t=P:problem=mixed beam	!	!	!	!	!
!	!	!	!LO:LB:g=original	!	!
8C\L	.	16ee\LL	16ee\LL	.	.
.	.	16dd\	16dd\	.	.
8F\	.	16ee\	16ee\	.	.
.	.	16cc\JJ	16cc\JJ	.	.
8G\	.	8.bn\L	8.bn\L	.	.
8GG/J	.	.	.	.	.
.	.	16cc\Jk	16cc\Jk	.	.
=5	=5	=5	=5	=5	=5
8C/L	.	4cc\	4cc\	00r	.
8C/	.	.	.	.	.
8AA/	.	8r	8r	.	.
8FF/J	.	24cc\LL	24cc\LL	.	.
.	.	24dd\	24dd\	.	.
.	.	24ee-X\JJ	24ee-X\JJ	.	.
!LO:LB:g=original	!	!	!	!	!
4BB-/	.	16dd\LL	16dd\LL	.	.
.	.	16b-\	16b-\	.	.
.	.	16a\	16a\	.	.
.	.	16b-\JJ	16b-\JJ	.	.
4C/	.	16een\LL	16een\LL	.	.
.	.	16b-\	16b-\	.	.
.	.	16a\	16a\	.	.
.	.	16b-\JJ	16b-\JJ	.	.
=6	=6	=6	=6	=6	=6
8D/L	.	24ff\LL	4ff\	.	.
.	.	24ee\	.	.	.
.	.	24ff\JJ	.	.	.
!	!	!LO:N:vis=8	!	!	!
8D/	.	4r	.	.	.
8C/	.	.	8r	.	.
8C/J	.	24ee\LL	24ee\LL	.	.
.	.	24ff\	24ff\	.	.
.	.	24gg\JJ	24gg\JJ	.	.
4D/	.	16ff\LL	16ff\LL	.	.
.	.	16dd\	16dd\	.	.
.	.	16cc\	16cc\	.	.
.	.	16dd\JJ	16dd\JJ	.	.
4E\	.	16gg\LL	16gg\LL	.	.
.	.	16cc\	16cc\	.	.
.	.	16b-\	16b-\	.	.
.	.	16cc\JJ	16cc\JJ	.	.
!	!	!LO:LB:g=original	!	!	!
=7	=7	=7	=7	=7	=7
8F\L	.	16aa\LL	16aa\LL	.	.
.	.	16gg\J	16gg\JJ	.	.
8F\J	.	8aa\J	4aa\	.	.
.	X 5	.	.	.	.
4.B-\	.	8aa\L	.	.	.
.	.	16gg\L	16gg\LL	.	.
.	.	16ff\JJ	16ff\JJ	.	.
.	.	16ee\LL	16ee\LL	.	.
.	.	16cc\	16cc\	.	.
16F\LL	4 2	16ff\	16ff\	.	.
16G\JJ	.	16gg\JJ	16gg\JJ	.	.
!LO:TX:a:t=P:problem=mixed beam	!	!	!	!	!
!	!	!	!LO:LB:g=original	!	!
8c\L	.	8.ee\L	8.ee\L	.	.
.	X 4	.	.	.	.
8C/J	X 3	.	.	.	.
.	.	16ff\Jk	16ff\Jk	.	.
=8	=8	=8	=8	=8	=8
4F\	.	8ff\L	8.ff\L	.	.
.	.	8cc\J	.	.	.
.	.	.	16cc\Jk	.	.
*	*	*tuplet	*tuplet	*	*
!	!	!LO:TUP:a:problem=klamra łukowa	!LO:TUP:a:problem=klamra łukowa	!	!
8B-\L	.	24dd\LL	24dd\LL	.	.
.	.	24cc\	24cc\	.	.
.	.	24b-\JJ	24b-\JJ	.	.
!	!	!LO:TUP:a:problem=klamra łukowa	!LO:TUP:a:problem=klamra łukowa	!	!
8A\J	.	24cc\LL	24cc\LL	.	.
.	.	24b-\	24b-\	.	.
.	.	24a\JJ	24a\JJ	.	.
!LO:TX:a:t=P:problem=mixed beam	!	!	!	!	!
8G\L	.	16b-\LL	16b-\LL	.	.
.	.	16g\	16g\	.	.
8F\	.	16a\	16a\	.	.
.	.	16b-\JJ	16b-\JJ	.	.
8c\	.	8.g/L	8.g/L	.	.
8C/J	.	.	.	.	.
.	.	16f/Jk	16f/Jk	.	.
=9	=9	=9	=9	=9	=9
8F\L	.	4f/	4f/	4r	.
16F\L	.	.	.	.	.
16G\JJ	.	.	.	.	.
8A\L	.	4r	4r	8r	.
8F\J	.	.	.	8F\	O
4E\	X 6	2ra	2ra	8c\	es-
.	.	.	.	8c\	-ca
8r	.	.	.	16c\LL	Via-
.	.	.	.	16B-\JJ	.
8C/	.	.	.	16A\LL	-to-
.	.	.	.	16G\JJ	.
!LO:LB:g=original	!	!	!	!	!
=10	=10	=10	=10	=10	=10
8.D/L	.	1r	1r	16F\LL	-rum
.	.	.	.	16E\JJ	.
.	.	.	.	8F\	.
16C/K	.	.	.	.	.
8D/	.	.	.	8r	.
8AA/J	.	.	.	8c\	o
8BB-/L	.	.	.	8d\	Pa-
8AA/	.	.	.	8c\	-nis
8GG/	.	.	.	16B-\LL	an-
.	.	.	.	16A\JJ	.
8C/J	.	.	.	16B-\LL	-ge-
.	.	.	.	16c\JJ	.
=11	=11	=11	=11	=11	=11
!LO:TX:a:t=P:problem=mixed beam	!	!	!	!	!
8FF/L	.	2r	2r	8A\	-lo-
8F\	.	.	.	8F\	-rum
8E\	.	.	.	8r	.
8C\J	.	.	.	8G\	O
!	!	!	!	!LO:LB:g=original	!
8F\L	.	8r	8r	8A\	Man-
8C\J	.	8gg\L	8gg\L	8G\	-na
8r	.	8aa\	8aa\	8r	.
8C/	.	8gg\J	8gg\J	8G\	o
!	!	!LO:LB:g=original	!	!	!
=12	=12	=12	=12	=12	=12
8F\	.	2r	2r	8G\	Man-
4C/	.	.	.	16G\LL	-na
.	.	.	.	16A\JJ	.
.	.	.	.	8.F\	Coe-
8BBn/	.	.	.	.	.
.	.	.	.	16F\	-li-
8C/L	.	8r	8r	4E\	-tum
*	*	*Xtuplet	*Xtuplet	*	*
16C/L	.	24c/LL	24c/LL	.	.
.	.	24e/	24e/	.	.
16D/JJ	.	.	.	.	.
.	.	24g/JJ	24g/JJ	.	.
!	!	!LO:TX:a:t=P:problem=mixed beam	!LO:TX:a:t=P:problem=mixed beam	!	!
8E\L	.	8cc\L	8cc\L	4r	.
8F\J	.	8c/J	8c/J	.	.
!	!	!	!LO:LB:g=original	!	!
=13	=13	=13	=13	=13	=13
4C/	.	2r	2r	8G\	e-
.	.	.	.	16E\	-su-
.	.	.	.	16F\	-ri-
4r	.	.	.	8G\	-en-
.	.	.	.	8A\	-tes
8C/L	.	8r	8r	8G\	ci-
16C/L	.	16cc\LL	16cc\LL	8E\	-ta
16D/JJ	.	16b-\JJ	16b-\JJ	.	.
!	!	!LO:TX:a:t=P:problem=mixed beam	!LO:TX:a:t=P:problem=mixed beam	!	!
8E\L	.	8cc\L	8cc\L	4r	.
8F\J	.	8c/J	8c/J	.	.
=14	=14	=14	=14	=14	=14
4C/	.	0r	0r	8G\	dul-
.	.	.	.	16E\	-ce-
.	.	.	.	16F\	-di-
!	!	!	!	!LO:LB:g=original	!
4r	.	.	.	8G\	-nem
.	.	.	.	8A\	.
4C/	.	.	.	8G\	pri-
.	.	.	.	8E\	-va
!LO:LB:g=original	!	!	!	!	!
8c\L	.	.	.	8r	.
8B-\J	.	.	.	8G\	cor
=15	=15	=15	=15	=15	=15
4A\	6 5	.	.	8c\	Te
.	.	.	.	16A\LL	quae-
.	.	.	.	16G\JJ	.
4B-\	.	.	.	8F\L	-ren-
.	.	.	.	16G\L	.
.	.	.	.	16A\JJ	.
4G\	6 5	.	.	8B-\L	.
.	.	.	.	16G\L	.
.	.	.	.	16F\JJ	.
4A\	.	.	.	8E\L	.
.	.	.	.	16F\L	.
.	.	.	.	16G\JJ	.
=16	=16	=16	=16	=16	=16
4F\	6 5	1r	1r	8A\L	.
.	.	.	.	16F\L	.
.	.	.	.	16E\JJ	.
4G\	X n	.	.	8D\L	.
.	.	.	.	16E\L	.
.	.	.	.	16F\JJ	.
4C/	.	.	.	8.D\	.
.	.	.	.	16D\	-ti-
8r	.	.	.	8C/	-um
8A\	.	.	.	8c\	Cor
=17	=17	=17	=17	=17	=17
!LO:TX:a:t=P:problem=mixed beam	!	!	!	!	!
8B-\L	.	2r	2r	16d\LL	te
.	.	.	.	16G\JJ	.
8F\	.	.	.	16A\LL	quae-
.	.	.	.	16B-\JJ	.
8c\	.	.	.	8.G\	-ren-
8C/J	.	.	.	.	.
.	.	.	.	16F\	-ti-
!	!	!	!	!LO:LB:g=original	!
8F\L	.	8r	8r	4F\	-um
16F\L	.	24f/LL	24f/LL	.	.
.	.	24a/	24a/	.	.
16G\J	.	.	.	.	.
.	.	24cc/JJ	24cc/JJ	.	.
!	!	!LO:TX:a:t=P:problem=mixed beam	!LO:TX:a:t=P:problem=mixed beam	!	!
8A\	.	8ff\L	8ff\L	4r	.
8B-\J	.	8f/J	8f/J	.	.
=18	=18	=18	=18	=18	=18
4F\	.	2r	2r	8c\	e-
.	.	.	.	16A\	-sur-
.	.	.	.	16B-\	-i-
4r	.	.	.	8c\	-en-
.	.	.	.	8d\	-tes
8F\L	.	8r	8r	8c\	Ci-
16F\L	.	16ff\LL	16ff\LL	8A\	-ta
16G\J	.	16ee\JJ	16ee\JJ	.	.
!	!	!LO:TX:a:t=P:problem=mixed beam	!LO:TX:a:t=P:problem=mixed beam	!	!
8A\	.	8ff\L	8ff\L	4r	.
8B-\J	.	8f/J	8f/J	.	.
=19	=19	=19	=19	=19	=19
4F\	.	0r	0r	8c\	dul-
.	.	.	.	16A\	-ce-
.	.	.	.	16B-\	-di-
4r	.	.	.	8c\	-nē
.	.	.	.	8d\	pri-
8F\L	.	.	.	8c\	-va
16F\L	.	.	.	8A\	Cor
16G\J	.	.	.	.	.
8A\	.	.	.	8r	.
8F\J	.	.	.	8c\	te
!LO:LB:g=original	!	!	!	!	!
=20	=20	=20	=20	=20	=20
4B-\	.	.	.	8d\	quae-
.	.	.	.	16B-\LL	.
.	.	.	.	16A\JJ	.
4c\	.	.	.	8G\L	-ren-
.	.	.	.	16A\L	.
.	.	.	.	16B-\JJ	.
4A\	.	.	.	8c\L	.
.	.	.	.	16A\L	.
.	.	.	.	16G\JJ	.
4B-\	.	.	.	8F\L	.
.	.	.	.	16G\L	.
.	.	.	.	16A\JJ	.
=21	=21	=21	=21	=21	=21
4G\	.	1r	1r	8B-\L	.
.	.	.	.	16G\L	.
.	.	.	.	16F\JJ	.
!	!	!	!	!LO:LB:g=original	!
4c\	.	.	.	8E\L	.
.	.	.	.	16F\L	.
.	.	.	.	16G\JJ	.
4F\	.	.	.	8.G\	.
.	.	.	.	16F\	-ti-
8r	.	.	.	8F\	-um
8c\	.	.	.	8G\	Cor
!	!	!LO:LB:g=original	!	!	!
=22	=22	=22	=22	=22	=22
!LO:TX:a:t=P:problem=mixed beam	!	!	!	!	!
8F\L	.	2ryy	2r	16An\LL	te
.	.	.	.	16G\JJ	.
8B-\	.	.	.	16B-\LL	quae-
.	.	.	.	16A\JJ	.
8c\	.	.	.	8.G\	-ren-
8C/J	.	.	.	.	.
.	.	.	.	16F\	-ti-
!LO:TX:a:t=P:problem=mixed beam	!	!	!	!	!
8F\L	.	8r	8r	4F\	-um
8FF/J	.	24f/LL	24f/LL	.	.
.	.	24a/	24a/	.	.
.	.	24cc/JJ	24cc/JJ	.	.
!	!	!	!LO:LB:g=original	!	!
!	!	!LO:TX:a:t=P:problem=mixed beam	!LO:TX:a:t=P:problem=mixed beam	!	!
8r	.	8ff\L	8ff\L	8r	.
8C/	.	8f/J	8f/J	8C/	Cor
=23	=23	=23	=23	=23	=23
4F\	.	1r	1r	4F\	te
4BB-/	.	.	.	4BB-/	que-
2C/	X 4	.	.	4.C/	-ren-
.	X 3	.	.	8C/	-ti-
=24	=24	=24	=24	=24	=24
!LO:TX:a:t=P:problem=mixed beam	!	!	!	!	!
8FF/L	.	2r	2r	2FF;/	-um
8F\	.	.	.	.	.
8E\	.	.	.	.	.
8C\J	.	.	.	.	.
8F\L	.	4r	4r	2rAA	.
8G\	.	.	.	.	.
8A\	.	8r	8r	.	.
8F\J	.	8f/	8f/	.	.
=25	=25	=25	=25	=25	=25
4E\	X 6	8cc\L	8cc\L	00r	.
.	.	8cc\J	8cc\J	.	.
8r	.	16cc\LL	16cc\LL	.	.
.	.	16b-\	16b-\	.	.
8C/	.	16a\	16a\	.	.
.	.	16g\JJ	16g\JJ	.	.
!LO:LB:g=original	!	!	!	!	!
8.D/L	.	24f/LL	16f/LL	.	.
.	.	24e/	.	.	.
.	.	.	16f/J	.	.
.	.	24f/JJ	.	.	.
.	.	8r	8f/J	.	.
16C/K	.	.	.	.	.
8D/	.	4e/	8r	.	.
8GG/J	.	.	8cc\	.	.
=26	=26	=26	=26	=26	=26
!	!	!LO:N:vis=16	!	!	!
8BB-/L	.	8dd\L	8dd\L	.	.
8AA/	.	16cc\L	16cc\L	.	.
.	.	16dd\JJ	16dd\JJ	.	.
8GG/	.	16b-\LL	16b-\LL	.	.
.	.	16a\	16a\	.	.
8C/J	.	16b-\	16b-\	.	.
.	.	16cc\JJ	16cc\JJ	.	.
4FF/	.	8a/L	8a/L	.	.
.	.	8f/J	8f/J	.	.
!	!	!LO:LB:g=original	!	!	!
!	!	!LO:N:vis=16	!	!	!
8r	.	8ff\L	8ff\L	.	.
8F\	.	16gg\L	16gg\L	.	.
.	.	16aa\JJ	16aa\JJ	.	.
=27	=27	=27	=27	=27	=27
8F\L	X 2	4.gg\	4.gg\	.	.
16E\L	.	.	.	.	.
16D\JJ	.	.	.	.	.
4.E\	.	.	.	.	.
.	X 2	24cc\LL	24cc\LL	.	.
.	.	24dd\	24dd\	.	.
.	.	24ee\JJ	24ee\JJ	.	.
!	!	!	!LO:LB:g=original	!	!
.	.	4.ff\	4.ff\	.	.
16D\LL	.	.	.	.	.
16C\JJ	X 7	.	.	.	.
4D\	X 6	.	.	.	.
.	.	24bn\LL	24bn\LL	.	.
.	.	24cc\	24cc\	.	.
.	.	24dd\JJ	24dd\JJ	.	.
=28	=28	=28	=28	=28	=28
!LO:TX:a:t=P:problem=mixed beam	!	!	!	!	!
8C\L	.	16ee\LL	16ee\LL	.	.
.	.	16dd\	16dd\	.	.
8F\	.	16ee\	16ee\	.	.
.	.	16cc\JJ	16cc\JJ	.	.
8G\	.	8.bn\L	8.bn\L	.	.
8GG/J	.	.	.	.	.
.	.	16cc\Jk	16cc\Jk	.	.
8C/L	.	4cc\	4cc\	.	.
8C/	.	.	.	.	.
8AA/	.	8r	8r	.	.
8FF/J	.	24cc\LL	24cc\LL	.	.
.	.	24dd\	24dd\	.	.
.	.	24ee-X\JJ	24ee-X\JJ	.	.
=29	=29	=29	=29	=29	=29
4BB-/	.	16dd\LL	16dd\LL	0r	.
.	.	16b-\	16b-\	.	.
.	.	16a\	16a\	.	.
.	.	16b-\JJ	16b-\JJ	.	.
4C/	.	16een\LL	16een\LL	.	.
.	.	16b-\	16b-\	.	.
.	.	16a\	16a\	.	.
.	.	16b-\JJ	16b-\JJ	.	.
8D/L	.	16ff\LL	4ff\	.	.
.	.	16ee\J	.	.	.
8D/	.	8ff\J	.	.	.
!	!	!LO:LB:g=original	!	!	!
8C/	.	16r	8r	.	.
.	.	16ee\LL	.	.	.
8C/J	.	16ff\	24ee\LL	.	.
.	.	.	24ff\	.	.
.	.	16gg\JJ	.	.	.
.	.	.	24gg\JJ	.	.
=30	=30	=30	=30	=30	=30
4D\	.	16ff\LL	16gg\LL	.	.
.	.	16dd\	16dd\	.	.
.	.	16cc\	16cc\	.	.
.	.	16dd\JJ	16dd\JJ	.	.
4E\	.	16gg\LL	16gg\LL	.	.
.	.	16cc\	16cc\	.	.
.	.	16b-\	16b-\	.	.
.	.	16cc\JJ	16cc\JJ	.	.
!LO:LB:g=original	!	!	!	!	!
4F\	.	16aa\LL	16aa\LL	.	.
.	.	16gg\JJ	16gg\JJ	.	.
.	.	4aa\	4aa\	.	.
4BB-/	.	.	.	.	.
!	!	!	!LO:LB:g=original	!	!
.	.	16gg\LL	16gg\LL	.	.
.	.	16ff\JJ	16ff\JJ	.	.
=31	=31	=31	=31	=31	=31
16AA/LL	.	16ee\LL	16ee\LL	1r	.
16BB-/JJ	.	16cc\	16cc\	.	.
8C/L	.	16ff\	16ff\	.	.
.	.	16gg\JJ	16gg\JJ	.	.
8CC/J	.	8.ee\L	8.ee\L	.	.
4FF/	.	.	.	.	.
.	.	16ff\Jk	16ff\Jk	.	.
.	.	8ff\L	8.ff\L	.	.
8BB-/L	.	8cc\J	.	.	.
.	.	.	16cc\Jk	.	.
*	*	*tuplet	*tuplet	*	*
!	!	!LO:TUP:a:problem=klamra łukowa	!LO:TUP:a:problem=klamra łukowa	!	!
8AA/J	.	24dd\LL	24dd\LL	.	.
.	.	24cc\	24cc\	.	.
.	.	24b-\JJ	24b-\JJ	.	.
!	!	!LO:TUP:a:problem=klamra łukowa	!LO:TUP:a:problem=klamra łukowa	!	!
8r	.	24cc\LL	24cc\LL	.	.
.	.	24b-\	24b-\	.	.
.	.	24a\JJ	24a\JJ	.	.
=32	=32	=32	=32	=32	=32
8GG/L	.	16b-\LL	16b-\LL	2r	.
.	.	16g\	16g\	.	.
8FF/J	.	16a\	16a\	.	.
.	.	16b-\JJ	16b-\JJ	.	.
4C/	.	8.g/L	8.g/L	.	.
.	.	16f/Jk	16f/Jk	.	.
!LO:TX:a:t=P:problem=mixed beam	!	!	!	!	!
8FF/L	.	4f/;	4f/;	4r	.
8F\	.	.	.	.	.
8E\	.	4r	4r	8r	.
8D\J	.	.	.	8A\	O
!	!	!LO:LB:g=original	!	!	!
=33	=33	=33	=33	=33	=33
4C#X/	X 6	2r	2r	8A\	Lym-
.	.	.	.	16G\LL	-fa
.	.	.	.	16F\JJ	.
!	!	!	!	!LO:LB:g=original	!
8r	.	.	.	16E\LL	Fons
.	.	.	.	16F\JJ	.
8AA/	.	.	.	16G\LL	a-
.	.	.	.	16A\JJ	.
4D/	.	8r	8r	8F\	-mo-
.	.	16dd\LL	16dd\LL	8D\	-ris
.	.	16ee\JJ	16ee\JJ	.	.
4r	.	4ff\	4ff\	8r	.
.	.	.	.	8G\	qui
=34	=34	=34	=34	=34	=34
4BBn/	X 6	2r	2r	8G\	pa-
.	.	.	.	16F\LL	-ro
.	.	.	.	16E\JJ	.
8r	.	.	.	16D\LL	Sal-
.	.	.	.	16E\JJ	.
8GG/	.	.	.	16F\LL	-va-
.	.	.	.	16G\JJ	.
4C/	.	8r	8r	8E\	-to-
.	.	16cc\LL	16cc\LL	8C/	-ris
.	.	16dd\JJ	16dd\JJ	.	.
8r	.	4ee\	4ee\	8r	.
8E\	X 6	.	.	8G\	e
!LO:LB:g=original	!	!	!LO:LB:g=original	!	!
=35	=35	=35	=35	=35	=35
8F\L	.	2r	2r	8A\	Cor-
8E\	X 7	.	.	16G\LL	-de
.	.	.	.	16A\JJ	.
8D\	X 7	.	.	16F\LL	pro-
.	.	.	.	16E\JJ	.
8GG\J	.	.	.	16F\LL	-flu-
.	.	.	.	16G\JJ	.
4C/	.	8r	8r	4E\	-is
.	.	16c/LL	16c/LL	.	.
.	.	16d/JJ	16d/JJ	.	.
4r	.	4e/	4e/	8r	.
.	.	.	.	8G\	Te
=36	=36	=36	=36	=36	=36
4C/	6 -	2r	2r	8c\	Si-
.	.	.	.	16A\LL	-ti-
.	.	.	.	16G\JJ	.
8D/L	.	.	.	8F#X\	-en-
8C/J	.	.	.	16G\LL	-tes
.	.	.	.	16A\JJ	.
8.BB-X/L	X 6	8r	8r	16B-\LL	po-
.	.	.	.	16A\JJ	.
.	.	16g/LL	16g/LL	8B-\	-ta
16AA/Jk	.	16a/JJ	16a/JJ	.	.
!	!	!	!	!LO:LB:g=original	!
4GG/	.	4b-X/	4b-/	8r	.
.	.	.	.	8G\	haec
=37	=37	=37	=37	=37	=37
8En\L	X 6	2r	2r	8c\	So-
8C\	6 5	.	.	16A\LL	-la
.	.	.	.	16G\JJ	.
8D\	X #	.	.	8F#X\	no-
8C\J	.	.	.	16G\LL	-ſtra
.	.	.	.	16A\JJ	.
8.BB-X/L	X 6	8r	8r	16B-\LL	Vo-
.	.	.	.	16A\JJ	.
.	.	16gg\LL	16gg\LL	8B-\	-ta
16AA/K	.	16aa\JJ	16aa\JJ	.	.
8GG/	X #	8bb-X\L	8bb-\L	8r	.
8D/J	.	8ff#X\J	8ff#X\J	8A\	his
!	!	!LO:LB:g=original	!	!	!
=38	=38	=38	=38	=38	=38
8GG/L	X -	16gg\LL	16gg\LL	16B-\LL	U-
.	.	16ff#X\	16ff#X\	16A\JJ	.
8C/	.	16gg\	16gg\	16c\LL	-na
.	.	16aa\JJ	16aa\JJ	16B-\JJ	.
8D/	X 4	8.ff#X\L	8.ff#X\L	8.A\	ſuf-
8D/J	X 3	.	.	.	.
.	X #	16gg\Jk	16gg\Jk	16G\	-fi-
4GG/	X n	8gg\L	8gg\L	4G\	-cis
.	.	16bn\L	16bn\L	.	.
.	.	16cc\JJ	16cc\JJ	.	.
4r	.	4dd\	4dd\	8r	.
.	.	.	.	8G\	O
=39	=39	=39	=39	=39	=39
4BBn/	X 6	2r	2r	8G\	lim-
.	.	.	.	16F\LL	-fa
.	.	.	.	16En\JJ	.
8r	.	.	.	16D\LL	fons
.	.	.	.	16E\JJ	.
8GG/	7 n	.	.	16F\LL	a-
.	.	.	.	16G\JJ	.
4C/	.	8r	8r	8En\	mo-
.	.	16cc\LL	16cc\LL	8C/	-ris
.	.	16dd\JJ	16dd\JJ	.	.
4r	.	4ee\	4ee\	8r	.
.	.	.	.	8c\	qui
!LO:LB:g=original	!	!	!LO:LB:g=original	!	!
=40	=40	=40	=40	=40	=40
4E\	X 6	2r	2r	8c\	pa-
.	.	.	.	16B-\LL	-ro
.	.	.	.	16A\JJ	.
!	!	!	!	!LO:LB:g=original	!
8r	.	.	.	16G\LL	Sal-
.	.	.	.	16A\JJ	.
8C/	X 7-	.	.	16B-\LL	-va-
.	.	.	.	16c\JJ	.
4F\	.	8r	8r	8A\	-to-
.	.	16ff\LL	16ff\LL	8F\	-ris
.	.	16gg\JJ	16gg\JJ	.	.
8r	.	4aa\	4aa\	8r	.
8C/	X 6	.	.	8A\	e
=41	=41	=41	=41	=41	=41
*	*reverse	*	*	*	*
2D/	X 6n	2r	2r	8Bn\	Cor-
*	*Xreverse	*	*	*	*
.	X 5	.	.	8c\	-de
.	.	.	.	8.B\	pro-
.	.	.	.	16A\	-flu-
8E\L	.	8r	8r	4G#X\	-is
.	X #	.	.	.	.
*	*	*Xtuplet	*Xtuplet	*	*
16E\L	.	24e/LL	24e/LL	.	.
.	.	24g#X/	24g#X/	.	.
16D\JJ	.	.	.	.	.
.	.	24bn/JJ	24b-/JJ	.	.
8C/L	X 6	4ee\	4ee\	4r	.
8BBn/J	X 6	.	.	.	.
=42	=42	=42	=42	=42	=42
4AA/	.	2r	2r	8e\	Te
.	.	.	.	16c\	si-
.	.	.	.	16d\	-ti-
4r	.	.	.	16e\	-ten-
.	.	.	.	16f\	-tes
.	.	.	.	8e\	po-
8AA/L	.	8r	8r	8c\	-ta
!	!	!	!	!LO:N:vis=4	!
16AA/L	.	16aa\LL	16aa\LL	4.r	.
16BBn/JJ	.	16gg#X\JJ	16gg#X\JJ	.	.
!	!	!LO:TX:a:t=P:problem=mixed beam	!LO:TX:a:t=P:problem=mixed beam	!	!
8C/L	.	8aa\L	8aa\L	.	.
8D/J	.	8a/J	8a/J	.	.
=43	=43	=43	=43	=43	=43
4AA/	.	1ryy	0r	8c\	haec
.	.	.	.	16A\	So-
.	.	.	.	16Bn\	-la
!	!	!	!	!LO:LB:g=original	!
4r	.	.	.	8c\	no-
.	.	.	.	8d\	-stra
!LO:TX:a:t=P:problem=mixed beam	!	!	!	!	!
8AA/L	.	.	.	8c\	Vo-
8A\	.	.	.	8A\	-ta
8G#X\	.	.	.	8r	.
8E\J	.	.	.	8Bn\	his
=44	=44	=44	=44	=44	=44
8AA/L	.	1ryy	.	16c\LL	U-
.	.	.	.	16Bn\JJ	.
8D/	.	.	.	16d\LL	-na
.	.	.	.	16c\JJ	.
8E/	.	.	.	8.Bn\	ſuf-
8EE/J	.	.	.	.	.
.	.	.	.	16A\	-fi-
!LO:TX:a:t=P:problem=mixed beam	!	!	!	!	!
8AA/L	.	.	.	4A\	-cis
8A\	.	.	.	.	.
8F\	.	.	.	8F\	U-
8D\J	.	.	.	8D\	-na
=45	=45	=45	=45	=45	=45
*2\right	*	*	*	*	*
!LO:TX:b:i:t=Da Capo	!	!LO:TX:b:i:t=Da Capo	!	!	!
2E\	.	1ryy	1r	4.E\	Suf-
.	.	.	.	8E\	-fi-
!	!	!	!	!LO:TX:a:t=45.	!
2AA/	.	.	.	2AA/	-cis.
!	!	!	!LO:TX:a:t=P:problem=w źródle ta adnotacja zapisana na pięciolinii, za ostatnim taktem	!LO:TX:a:t=P:problem=w źródle ta adnotacja zapisana na pięciolinii, za ostatnim taktem	!
!	!	!	!LO:TX:a:i:t=Da Capo	!LO:TX:a:i:t=Da Capo	!
==;;	==;;	==;;	==;;	==;;	==
*-	*-	*-	*-	*-	*-
!!!system-decoration: s1[g1]s4
!!!EED: Antoni Szymański
!!!EST: 2020-11-19
!!!AIN: 1 empty 1 organ 2 violn
!!!ENC: Tomasz Grochalski
!!!END: 2020-06-05
